X:1
T:Title
%%score { ( 1 3 ) | 2 }
L:1/8
Q:1/4=100
M:4/4
K:F
V:1 treble nm="Grand Piano"
V:3 treble 
V:2 bass 
V:1
 c2 A2 A2 B2 | [FA]2 [EG]2 [EG]4 | AGFG [FA]2 G2 | F6 z2 | c2 A2 A2 B2 | [FA]2 [EG]2 [EG]4 | %6
w: J.~H.~Ruebush * * *||||||
 AGFG [FA]2 G2 | F6 z2 | c2 A2 A4 | [Fd]2 [DFB]2 [DFB]4 | c2 A2 d2 c2 | [Fc]2 [EB]2 B2- [GB]2 | %12
w: ||||||
 c2 A2 A2 B2 | [FA]2 [EG]2 [EG]4 | AGFG [FA]2 [EG]2 | F6 z2 |] %16
w: ||||
V:2
 [F,A,F]2 [F,CF]2 [F,CF]2 [F,DF]2 | [C,C]2 [C,C]2 [C,C]4 | %2
 [F,CF][F,B,E][F,A,D][F,B,E] [C,C]2 [C,B,C]2 | [F,A,C]6 z2 | [F,A,F]2 [F,CF]2 [F,CF]2 [F,DF]2 | %5
 [C,C]2 [C,C]2 [C,C]4 | [F,CF][F,B,E][F,A,][F,B,E] [C,C]2 [C,B,C]2 | [F,A,C]6 z2 | %8
 [F,A,F]2 [F,CF]2 [F,CF]4 | [B,,B,]2 B,,2 B,,4 | [F,A,F]2 [F,CF]2 [F,B,F]2 [F,A,F]2 | %11
 [C,A,]2 [C,G,]2 [C,G,]4 | [F,A,F]2 [F,CF]2 [F,CF]2 [F,DF]2 | [C,C]2 [C,C]2 [C,C]4 | %14
 [F,CF][F,B,E][F,A,][F,B,E] [C,C]2 [C,B,]2 | [F,A,]6 z2 |] %16
V:3
 x8 | x8 | x8 | x8 | x8 | x8 | x8 | x8 | x8 | x8 | x8 | z4 E2 z2 | x8 | x8 | x8 | x8 |] %16

